X:185
T:Abel Brown The Sailor
M:C
L:1/8
Q:1/4=110
K:A
E2|\
A/A/AAA AA2A|A2A/ G2G/ B2A|G4 E2E2|
B/B/BBB BB2B|B2B/ B2B/ e2d|c4 A2EA|
c4 cc2d|B6 EG|B6 d2|c4 A2EA|
c4 cc2d|B6 EG|B6 d2|c4 A2 ||
